src/pos-icons/message-draw.svg

<svg height="24" viewBox="0 0 24 24" width="24" xmlns="http://www.w3.org/2000/svg"><path d="m18 14h-7.5l2-2h5.5m-12 2v-2.5l6.88-6.86c.19-.19.51-.19.71 0l1.76 1.77c.2.2.2.51 0 .71l-6.88 6.88m11.53-12h-16a2 2 0 0 0 -2 2v18l4-4h14a2 2 0 0 0 2-2v-12c0-1.11-.9-2-2-2z"/></svg>

<?xml version="1.0" encoding="UTF-8"?><!DOCTYPE svg PUBLIC "-//W3C//DTD SVG 1.1//EN" "http://www.w3.org/Graphics/SVG/1.1/DTD/svg11.dtd"><svg xmlns="http://www.w3.org/2000/svg" xmlns:xlink="http://www.w3.org/1999/xlink" version="1.1" id="mdi-message-draw" width="24" height="24" viewBox="0 0 24 24"><path d="M18,14H10.5L12.5,12H18M6,14V11.5L12.88,4.64C13.07,4.45 13.39,4.45 13.59,4.64L15.35,6.41C15.55,6.61 15.55,6.92 15.35,7.12L8.47,14M20,2H4A2,2 0 0,0 2,4V22L6,18H20A2,2 0 0,0 22,16V4C22,2.89 21.1,2 20,2Z" /></svg>
